src/svg/external-link-square-alt.svg

<svg height="1000" width="875.0" xmlns="http://www.w3.org/2000/svg">
    <path d="m875 156.3v687.5c0 51.7-42 93.7-93.7 93.7h-687.5c-51.8 0-93.8-42-93.8-93.7v-687.5c0-51.8 42-93.8 93.8-93.8h687.5c51.7 0 93.7 42 93.7 93.8z m-171.9 31.2h-218.7c-41.6 0-62.6 50.5-33.1 80l62.5 62.5-381.9 381.9c-9.2 9.1-9.2 24 0 33.1l60.6 60.6c9.1 9.2 24 9.2 33.1 0l381.9-381.9 62.5 62.5c29.3 29.4 80 8.8 80-33.1v-218.7c0-25.9-21-46.9-46.9-46.9z" />
  </svg>

<svg height="1000" width="875" xmlns="http://www.w3.org/2000/svg"><path d="M875 156.3v687.5c0 51.7 -42 93.7 -93.7 93.7H93.8C42 937.5 0 895.5 0 843.8V156.3C0 104.5 42 62.5 93.8 62.5h687.5c51.7 0 93.7 42 93.7 93.8zm-171.9 31.2H484.4c-41.6 0 -62.6 50.5 -33.1 80l62.5 62.5L131.9 711.9c-9.2 9.1 -9.2 24 0 33.1l60.6 60.6c9.1 9.2 24 9.2 33.1 0L607.5 423.7l62.5 62.5c29.3 29.4 80 8.8 80 -33.1V234.4c0 -25.9 -21 -46.9 -46.9 -46.9z"/></svg>
